**kern	**kern	**dynam
*part1	*part1	*part1
*staff2	*staff1	*
*I"Piano	*	*
*clefF4	*clefG2	*
*k[b-]	*k[b-]	*
=1	=1	=1
8.AAAL 8.AA	8.dL 8.f 8.b- 8.dd	.
16AAAK 16AA	16dK 16f 16b- 16dd	.
8AAAJ 8AA	8dJ 8f 8b- 8dd	.
=	=	=
8.GGGL 8.GG	8.eL 8.b- 8.dd	f
16GGGK 16GG	16eK 16b- 16dd	.
8GGGJ 8GG	8eJ 8b- 8dd	.
=	=	=
8GGG' 8GG	8e' 8b- 8dd	.
8r	8r	.
8r	8r	.
=	=	=
8.CCL 8.C	8.gL 8.b- 8.ee	.
16CCK 16C	16gK 16b- 16ee	.
8CCJ 8C	8gJ 8b- 8ee	.
=	=	=
8.CCL 8.C	8.gL 8.b- 8.ee	.
16CCK 16C	16fK 16b- 16dd	.
8CCJ 8C	8eJ 8b- 8cc	.
=	=	=
8.FFFL 8.FF	8.fL 8.a 8.cc	.
16FFFK 16FF	16cK 16a 16cc	.
8FFFJ 8FF	8cJ 8a 8cc	.
=	=	=
8FFF' 8FF	8c' 8a 8cc	.
8r;	8r;	.
==	==	==
*-	*-	*-
!!!system-decoration: {(s1,s2)}
